X: 2106
T: Çubuğum Yok Yol Üstüne Uzatam
C: (Anonim)
O: Turkey
F: http://compmusic.upf.edu/node/140
N: muhayyerkurdi--turku--aksak--cubugum_yok--
N: makam= muhayyerkurdi
N: form= turku
N: usul= aksak = 9/8
M: 9/8
L: 1/16
K: C _B   
Q: 1/4=168
%%MIDI tuningsystem comma53
a4 a2g2 g2a2 g2f2 e2 | fe fge2 d2c2 _3/4B2A2 B2d2  | \
w:  ARANAĞME  |   | 
c3_7/8B _B2BA A2Bc de^3/4fg a2 | 
w:   | 
a4a2 g2g2 a2g2 f2e2  | fefg e2d2 c2_3/4B2 A2B2 d2 | \
w:  ARANAĞME  |   | 
c3BB2 BAA4de ^3/4fgfg  | 
w:   | 
a4 ^3/4f2g2 a4 a_2/4bc'2 _3/4ba | \
w:  *  Çu bu ğum  yok  *  *  a  | 
a4^3/4fg a2a4a6  | g3b a2g2 {g}f2e2 f2g2 a2 | 
w:  man  yol  *  üs tü ne   |  u *  *  za *  tam    | 
c'2 _7/8b2a2 g2a4{a}g2 f2e2  | fefg e2d2 c2_7/8B2 A2_B2 d2 | \
w:  Tâ *  *  ka tim  *  yok   |  yâr  *  *  *  yol *  la *  rın   | 
c3BB2 BAA4de ^3/4fga2  | 
w:  gö *  *  ze *  tem   SAZ  | 
a6g2 g2a2 {a}g2f2 e2 | f3/2e/ fge2 d2c2 _7/8B2A2 _B2d2  | \
w:  Tâ ka tim  *  *  yok   |  yâr  *  *  *  yol *  la *  rın   | 
{d}c3B B2BA A4 de^3/4fg fg | 
w:  *  gö *  *  ze *  tem   SAZ  | 
a2 z2^2/4f2 g2a4a_2/4b c'2_3/4ba  | \
w:  *  Me nen din  yok  *  *  a  | 
a4 ^2/4fga2 a4 a4 g2 | g3ba2 g2f2 e2f2 g2a2  | 
w:  man  se *  ni  ki me   |  ben *  *  ze tem    | 
c'2b2 a2g2 a4 g2f2 e2 | fe fge2 d2c2 _3/4B2A2 _B2d2  | \
w:  Ört  *  *  yâ rim  yaz  |  ma *  *  *  yı  *  boy *  lu   | 
c3B BBBA A4 de^3/4fg a2 | 
w:  bo *  yun *  *  *  ca   SAZ  | 
a4a2 agg2 a2{a}g2 f2e2  | fefg e2d2 c2_7/8B2 A2_B2 d2 | \
w:  Ben  sa ra *  ma dım   |  el *  *  *  ler  *  sar *  sın   | 
c3BB2 BAA4de ^3/4fga2  | 
w:  do *  yun *  *  ca   SAZ  | 
a4 a2ag g2a2 {a}g2f2 e2 | fe fge2 d2c2 _7/8B2A2 _B2d2  | \
w:  Ben  sa ra *  ma dım   |  el *  *  *  ler  *  sar *  sın   | 
c3B BBBA A8-A2 | 
w:  do *  yun *  *  *  ca    | 
a4a2 g2g2 a2g2 f2e2  | fefg e2d2 c2_3/4B2 A2B2 d2 | \
w:  ARANAĞME  |   | 
c3_7/8B_B2 BAA2 Bcde ^3/4fga2  | 
w:   | 
a4 a2g2 g2a2 g2f2 e2 | fe fge2 d2c2 _3/4B2A2 B2d2  | \
w:  ARANAĞME  |   | 
c3B B2BA A4 de^3/4fg fg | 
w:   | 
a4^3/4f2 g2a4a_2/4b c'2_3/4ba  | a4 ^3/4fga2 a4 a6 | \
w:  *  Çu bu ğum  yok  *  *  a  |  man  yol  *  üs tü ne   | 
g3ba2 g2{g}f2 e2f2 g2a2  | 
w:  u *  *  za *  tam    | 
c'2_7/8b2 a2g2 a4 {a}g2f2 e2 | fe fge2 d2c2 _7/8B2A2 _B2d2  | \
w:  Tâ *  *  ka tim  *  yok   |  yâr  *  *  *  yol *  la *  rın   | 
c3B B2BA A4 de^3/4fg a2 | 
w:  gö *  *  ze *  tem   SAZ  | 
a6 g2g2 a2{a}g2 f2e2  | f3/2e/fg e2d2 c2_7/8B2 A2_B2 d2 | \
w:  Tâ ka tim  *  *  yok   |  yâr  *  *  *  yol *  la *  rın   | 
{d}c3BB2 BAA4de ^3/4fgfg  | 
w:  *  gö *  *  ze *  tem   SAZ  | 
a2z2 ^2/4f2g2 a4 a_2/4bc'2 _3/4ba | \
w:  *  Me nen din  yok  *  *  a  | 
a4^2/4fg a2a4a4g2  | g3b a2g2 f2e2 f2g2 a2 | 
w:  man  se *  ni  ki me   |  ben *  *  ze tem    | 
c'2 b2a2 g2a4g2 f2e2  | fefg e2d2 c2_3/4B2 A2_B2 d2 | \
w:  Ört  *  *  yâ rim  yaz  |  ma *  *  *  yı  *  boy *  lu   | 
c3BBB BAA4de ^3/4fga2  | 
w:  bo *  yun *  *  *  ca   SAZ  | 
a4 a2ag g2a2 {a}g2f2 e2 | fe fge2 d2c2 _7/8B2A2 _B2d2  | \
w:  Ben  sa ra *  ma dım   |  el *  *  *  ler  *  sar *  sın   | 
c3B B2BA A4 de^3/4fg a2 | 
w:  do *  yun *  *  ca   SAZ  | 
a4a2 agg2 a2{a}g2 f2e2  | fefg e2d2 c2_7/8B2 A2_B2 d2 | \
w:  Ben  sa ra *  ma dım   |  el *  *  *  ler  *  sar *  sın   | 
c3BBB BAA8-A2  | 
w:  do *  yun *  *  *  ca    | 
|


